X: 16
T:Toss the Feathers
M:4/4
L:1/8
S:Tommy Peoples, Donegal (fiddle)
R:Reel
D:From a 70's demo tape
Z:Bernie Stocks
H:'D2's, 'A2's and 'A3's are unisons
K:G
D2FD ADFD | AB{d}cA GECE | D2(3.F.F.D ADFD | Adde cAGE | D2FD AD(3.F.F.D | 
AB{d}cA GE~E2 | cABG A3c |1 (3dcd (3.e.e.d cAGE :|2 (3dcd (3.e.e.d cAGc ||
Ad(3.d.d.d Ad(3.d.d.d | Adfd edcd | ea{b}ag ~a3g | eaab aged |
(3.e.f.e ge afge | fded cAGA | B {cdB}c2B A2Ac |1 (3.c.c.d ed cAGc :|2(3.c.c.d ed cAGE ||
<end>
<start>
